X:1
T: Speedwell
N:
C:John Stapledon
S:
A:
O:
R:
M:4/4
K:G
I:speed 200
%W: A1
% voice 1 (1 lines, 28 notes)
K:G
M:4/4
L:1/16
D4 |G6 A2 G6 A2 |G2 A2 B2 c2 d4 B4 |c2 d2 e4 d4 c2 B2 |A2 B2 c4 B6 A2 |G2 A2 B4 A4 G2 F2 |
%W:
% voice 1 (1 lines, 24 notes)
E2 F2 G4 F6 D2 |E2 F2 G4 F2 G2 A4 |G2 A2 B4 A2 B2 c4 |B2 c2 d4 D4 F4 |G12 D4 |
%W: A2
% voice 1 (1 lines, 27 notes)
G6 A2 G6 A2 |G2 A2 B2 c2 d4 B4 |c2 d2 e4 d4 c2 B2 |A2 B2 c4 B6 A2 |G2 A2 B4 A4 G2 F2 |
%W:
% voice 1 (1 lines, 24 notes)
E2 F2 G4 F6 D2 |E2 F2 G4 F2 G2 A4 |G2 A2 B4 A2 B2 c4 |B2 c2 d4 D4 F4 |G12 d4 |
%W: B
% voice 1 (1 lines, 24 notes)
d6 c2 B4 A2 G2 |c2 d2 e4 E4 A4|A4 G4 F4 D4 |d6 e2 f4 e2 d2 |e2 f2 g4 e4 a4|
%W:
% voice 1 (1 lines, 22 notes)
a4 g4 f4 d4 |g2 f2 g4 d4 B4|B4 e4 c6 A2 |d2 ^c2 d4 B4 G4|G4 A4 F6 D2 |
%W:
% voice 1 (1 lines, 27 notes)
E2 F2 G4 F2 G2 A4 |G2 A2 B4 A6 G2 |A2 B2 c4 B4 c2 d2 |c4 B4 A6 G2 |A2 B2 c4 B2 c2 d4 |
%W:
% voice 1 (1 lines, 27 notes)
e2 f2 g4 f4 e2 f2 |g2 f2 e2 d2 e2 d2 c2 B2 |c2 B2 A2 G2 F4 E2 D2 |E2 F2 G4 G4 F4 |G12 ||
